X: 29
M: 3/4
L: 1/8
K: A
a2 |\
e2 A2 AB | c2 e2 Bd | {cd}c2 A2 A2 | A4 :|
{ag}ua2 |\
(vf2 e2) {ag}a2 | (f2 e2) {ag}a2 | (f2 e2) a2 | f4 e2 |\
f>>g {ag}a2 e2 | f>>g {ag}a2 e2 | f>>g {ag}a2 a2 | a4 c2 |
{de}d2 d2 cB | c2 e2 e2 | fg {ag}a2 {cd}c2 | BA HB2 {g}a/g/a/f/ |\
e2 A2 AB | c2e2 Bd | c2 A2 A2 | A4 |]


